next/assets/ui-icons/zrusit-kruh.svg

<svg width="24" height="24" viewBox="0 0 24 24" fill="none" xmlns="http://www.w3.org/2000/svg">
  <g clip-path="url(#a)">
    <path fill="currentColor" fill-rule="evenodd" clip-rule="evenodd" d="M0.869995 12C0.869995 5.86 5.86 0.869995 12 0.869995C18.14 0.869995 23.13 5.86 23.13 12C23.13 18.14 18.14 23.13 12 23.13C5.86 23.13 0.869995 18.14 0.869995 12ZM2.37 11.99C2.37 17.3 6.69 21.62 12 21.62V21.63C17.31 21.63 21.63 17.31 21.63 12C21.63 6.69 17.31 2.37 12 2.37C6.69 2.37 2.37 6.68 2.37 11.99ZM12 10.94L15.58 7.35001L16.65 8.42001L13.06 12L16.65 15.58L15.58 16.65L12 13.06L8.41998 16.65L7.34998 15.58L10.94 12L7.34998 8.42001L8.41998 7.35001L12 10.94Z"/>
  </g>
  <defs>
    <clipPath id="a">
      <rect width="24" height="24" fill="white"/>
    </clipPath>
  </defs>
</svg>

<svg xmlns="http://www.w3.org/2000/svg" width="24" height="24" fill="none" viewBox="0 0 24 24">
  <g clip-path="url(#a)">
    <path fill="currentColor" fill-rule="evenodd" d="M.87 12C.87 5.86 5.86.87 12 .87 18.14.87 23.13 5.86 23.13 12c0 6.14-4.99 11.13-11.13 11.13C5.86 23.13.87 18.14.87 12Zm1.5-.01c0 5.31 4.32 9.63 9.63 9.63v.01c5.31 0 9.63-4.32 9.63-9.63 0-5.31-4.32-9.63-9.63-9.63-5.31 0-9.63 4.31-9.63 9.62ZM12 10.94l3.58-3.59 1.07 1.07L13.06 12l3.59 3.58-1.07 1.07L12 13.06l-3.58 3.59-1.07-1.07L10.94 12 7.35 8.42l1.07-1.07L12 10.94Z" clip-rule="evenodd"/>
  </g>
  <defs>
    <clipPath id="a">
      <path fill="#fff" d="M0 0h24v24H0z"/>
    </clipPath>
  </defs>
</svg>
